X: 30104
T: Old As The Hills
R: jig
M: 6/8
K: Amajor
ABA cBA|dcd fga|ABA cBA|dBG Bcd|
ecA Ace|~d3 fga|ece dBG|1 ABA A2E:|2 ABA A2B||
cBc ecA|cea ecA|~c3 ecA|BAB dcB|
ABA Ace|~f3 agf|ece dBG|1 ABA A2B:|2 ABA A2E||

